.local/share/icons/Gruvbox-Plus-Dark/panel/22/motrix-tray-active.svg

<svg width="22" height="22" version="1.1" xmlns="http://www.w3.org/2000/svg">
  <defs>
    <style id="current-color-scheme" type="text/css">.ColorScheme-Text { color:#ebdbb2; } .ColorScheme-Highlight { color:#458588; } .ColorScheme-NeutralText { color:#fe8019; } .ColorScheme-PositiveText { color:#689d6a; } .ColorScheme-NegativeText { color:#fb4934; }</style>
  </defs>
  <path class="ColorScheme-Text" d="m4 3c-0.554 0-1 0.446-1 1v14c0 0.554 0.446 1 1 1h14c0.554 0 1-0.446 1-1v-14c0-0.554-0.446-1-1-1h-2v3.199c0 0.4432-0.3723 0.8008-0.834 0.8008h-8.332c-0.4617 0-0.834-0.3576-0.834-0.8008v-3.199h-2zm3 12h3c0.554 0 1 0.446 1 1v1 1h-1v-2h-1v2h-1v-2h-1v2h-1v-1-1c0-0.554 0.446-1 1-1zm8 0h2c0.554 0 1 0.446 1 1v1c0 0.554-0.446 1-1 1h-2c-0.554 0-1-0.446-1-1v-1c0-0.554 0.446-1 1-1zm-2.5 1c0.277 0 0.5 0.223 0.5 0.5s-0.223 0.5-0.5 0.5-0.5-0.223-0.5-0.5 0.223-0.5 0.5-0.5zm2.5 0v1h2v-1h-2z" fill="currentColor"/>
  <path class="ColorScheme-Highlight" d="m7 4v1h3v-1h-3zm5 0v1h3v-1h-3z" fill="currentColor"/>
</svg>

<svg xmlns="http://www.w3.org/2000/svg" width="22" height="22" version="1.1">
 <defs>
  <style id="current-color-scheme" type="text/css">
   .ColorScheme-Text { color:#ebdbb2; } .ColorScheme-Highlight { color:#458588; }
  </style>
 </defs>
 <path style="fill:currentColor" class="ColorScheme-Text" d="M 4 3 C 3.446 3 3 3.446 3 4 L 3 18 C 3 18.554 3.446 19 4 19 L 18 19 C 18.554 19 19 18.554 19 18 L 19 4 C 19 3.446 18.554 3 18 3 L 16 3 L 16 6.1992188 C 16 6.6424188 15.627682 7 15.166016 7 L 6.8339844 7 C 6.3723184 7 6 6.6424188 6 6.1992188 L 6 3 L 4 3 z M 7 15 L 10 15 C 10.554 15 11 15.446 11 16 L 11 17 L 11 18 L 10 18 L 10 16 L 9 16 L 9 18 L 8 18 L 8 16 L 7 16 L 7 18 L 6 18 L 6 17 L 6 16 C 6 15.446 6.446 15 7 15 z M 15 15 L 17 15 C 17.554 15 18 15.446 18 16 L 18 17 C 18 17.554 17.554 18 17 18 L 15 18 C 14.446 18 14 17.554 14 17 L 14 16 C 14 15.446 14.446 15 15 15 z M 12.5 16 C 12.777 16 13 16.223 13 16.5 C 13 16.777 12.777 17 12.5 17 C 12.223 17 12 16.777 12 16.5 C 12 16.223 12.223 16 12.5 16 z M 15 16 L 15 17 L 17 17 L 17 16 L 15 16 z"/>
 <path style="fill:currentColor" class="ColorScheme-Highlight" d="M 7 4 L 7 5 L 10 5 L 10 4 L 7 4 z M 12 4 L 12 5 L 15 5 L 15 4 L 12 4 z"/>
</svg>
